X:12
T:Orkney Wedding
R:march
C:Arthur Scott Robertson
O:20th century Shetland
D:Allie Bennett, It's About Time
Z:Paul Stewart Cranford (P.S.C.), <http://www.cranfordpub.com>
L:1/8
M:C|
Q:244
K:A
z2|A,2 CD E2 CE|F2 E2 E3 z|A3 B c2 BA|c2 B2 B3 z|
e3 c d2 B2|c2 A2 E2 A<c|dcBA G>EG<B|c2 A2 A2||
|:Af|e2 A2 ABce|a2 Aa f2 ec|e2 A2 dcBA|c2 B2 B2 cd|
e2 A2 ABce|a2 Aa f2 ec|dcBA G>EG<B|c2 A2 A2:|
|:z2|CDEC A,CE=G|F2 E2 EDCB,|A,CEA cAeA|c2 B2 B2 cd|
eAcA dBed|cBAG A<cEc|dcBA G>EG<B|c2 A2 A2:|
|:zf|eAcA EAcA|aAfA eAce|cAeA dcBA|c2 B2 B2 cd|
eAcA EAcA|aAfA eAcA|D<FBA GEGB|c2 A2 A2:|
